X: 19812
T: Jerrey Yn Theihll
R: reel
M: 4/4
K: Bminor
Bcde f2df|ecce dcBA|Bcde f2df|efde c2dc|
Bcde f2df|ecce dcBA|Bcde f2df|efde c2Bc||
dB B2 GBFB|dB B2 GBFB|dfed cdec|dBBA B2 Bc|
dB B2 GBFB|dB B2 GBFB|dfed cdec|dBBA B2 BA||

